src/icons/svg/DocumentFile.svg

<!-- Generated by IcoMoon.io -->
<svg version="1.1" xmlns="http://www.w3.org/2000/svg" width="19" height="24" viewBox="0 0 19 24">
<title>document-file</title>
<path fill="#444" d="M0.012 2.4c0-1.32 1.068-2.4 2.388-2.4h9.6l7.2 7.2v14.4c0 1.32-1.080 2.4-2.4 2.4h-14.412c-1.32 0-2.388-1.080-2.388-2.4l0.012-19.2zM10.8 1.8v6.6h6.6l-6.6-6.6zM8.523 20.663c0.818-0.802 1.227-1.944 1.227-3.427 0-1.377-0.389-2.431-1.167-3.16-0.774-0.729-1.874-1.094-3.3-1.094h-3.075v8.884h2.874c1.478 0 2.625-0.401 3.439-1.203zM6.773 15.511c0.324 0.393 0.486 0.997 0.486 1.811 0 0.871-0.17 1.519-0.51 1.944-0.34 0.421-0.875 0.632-1.604 0.632h-0.535v-4.977h0.699c0.656 0 1.144 0.196 1.465 0.589zM16.498 21.046c0.608-0.632 0.911-1.511 0.911-2.637 0-0.717-0.142-1.343-0.425-1.878-0.28-0.539-0.678-0.952-1.197-1.24s-1.116-0.431-1.793-0.431c-1.094 0-1.944 0.312-2.552 0.936-0.603 0.62-0.905 1.491-0.905 2.613 0 1.098 0.308 1.969 0.924 2.613 0.62 0.644 1.452 0.966 2.497 0.966 1.090 0 1.936-0.314 2.54-0.942zM13.187 19.764c-0.158-0.312-0.237-0.764-0.237-1.355s0.079-1.035 0.237-1.331c0.158-0.3 0.419-0.45 0.784-0.45 0.373 0 0.636 0.15 0.79 0.45s0.231 0.743 0.231 1.331c0 0.591-0.077 1.043-0.231 1.355-0.15 0.308-0.409 0.462-0.778 0.462-0.373 0-0.638-0.154-0.796-0.462z"></path>
</svg>

<svg width="19" height="24" viewBox="0 0 19 24" fill="none" xmlns="http://www.w3.org/2000/svg">
<g clip-path="url(#clip0)">
<path d="M0.012 2.4C0.012 1.08 1.08 0 2.4 0H12L19.2 7.2V21.6C19.2 22.92 18.12 24 16.8 24H2.388C1.068 24 0 22.92 0 21.6L0.012 2.4V2.4ZM10.8 1.8V8.4H17.4L10.8 1.8V1.8ZM8.523 20.663C9.341 19.861 9.75 18.719 9.75 17.236C9.75 15.859 9.361 14.805 8.583 14.076C7.809 13.347 6.709 12.982 5.283 12.982H2.208V21.866H5.082C6.56 21.866 7.707 21.465 8.521 20.663H8.523ZM6.773 15.511C7.097 15.904 7.259 16.508 7.259 17.322C7.259 18.193 7.089 18.841 6.749 19.266C6.409 19.687 5.874 19.898 5.145 19.898H4.61V14.921H5.309C5.965 14.921 6.453 15.117 6.774 15.51L6.773 15.511ZM16.498 21.046C17.106 20.414 17.409 19.535 17.409 18.409C17.409 17.692 17.267 17.066 16.984 16.531C16.704 15.992 16.306 15.579 15.787 15.291C15.268 15.003 14.671 14.86 13.994 14.86C12.9 14.86 12.05 15.172 11.442 15.796C10.839 16.416 10.537 17.287 10.537 18.409C10.537 19.507 10.845 20.378 11.461 21.022C12.081 21.666 12.913 21.988 13.958 21.988C15.048 21.988 15.894 21.674 16.498 21.046V21.046ZM13.187 19.764C13.029 19.452 12.95 19 12.95 18.409C12.95 17.818 13.029 17.374 13.187 17.078C13.345 16.778 13.606 16.628 13.971 16.628C14.344 16.628 14.607 16.778 14.761 17.078C14.915 17.378 14.992 17.821 14.992 18.409C14.992 19 14.915 19.452 14.761 19.764C14.611 20.072 14.352 20.226 13.983 20.226C13.61 20.226 13.345 20.072 13.187 19.764Z" fill="#1C2125"/>
</g>
<defs>
<clipPath id="clip0">
<rect width="19" height="24" fill="white"/>
</clipPath>
</defs>
</svg>
